X: 44
%
U:~=!turn!
U:w=!wedge!
T: Blue Bonnets over the Border
C:
O:Scotland
B:Keith Norman MacDonald : "The Skye collection of the best reels & strathspeys extant" : 1887
Z:Ralph Palmer
R:Air
M:6/8
L:1/8
K:Bb
"Slow with Expression"B,3- B,C/D/ | B>cd TB2 F | BGG G2 f | ~g>fd {/d}Tc2 B | B,2 B, TB,>CD | B>cd/c/ {/c}BGF | !sfz![B,3G3] (FD)wF | (FBD) {/D}C2 B, :|
(Bd).f (fd).B | g>fd {/d}Tc2 B | (Bd).f Tg>ab | B>cd/e/ {/d}Tc2 B | (Bd).f (fd).B | Tg>fd {/d}cBc | !sfz![B,3G3] (FD)wF | (FB).D {/D}C2 B, |
(Bd).f (fd).B | ~g>fd {/d}Tc2 B | (Bd).f Tg>ab | B>cd/e/ {/d}Tc2 B | (Bd).f (fd).B | Tg>fd {/d}cBc | !sfz![B,3G3] (FD)wF | (FB).D {/D}C2 B, |]


